src/baseIcons/icon-sign-language-content.svg

<svg xmlns="http://www.w3.org/2000/svg" viewBox="0 0 24 24"><path fill="#34B5E5" fill-rule="evenodd" d="M24 24V0h-9.5235012c-.0522941.1509058-.1523999.3974351-.3242234.78889373l-.8127996 1.80389716c-.613086 1.354666-1.5797796 3.425014-1.5643404 3.71835896.0194235.40739588.294341.07221565.294341.07221565.5329017-.76100355 2.8587437-5.25032684 3.4454336-5.15719355.4059018.06374899.6404782.33468219.5084978.73659964-.0119529.03884704-.1777999.37950569-.4636743.92137209l-1.0184896 1.92492063c-.7395879 1.41194048-1.5110503 2.94988483-1.5942228 3.47431986-.0283882.17929403-.0099608.5329017.229596.57025463.3989292.06424702 1.9074892-1.40745814 2.1146734-1.59820706.2893607-.26545477 1.4273797-1.36213659 1.8601756-1.55437963.2141568.03386665.4412625.23308224.4034116.47313702-.1030941.65392517-1.3681131 1.91545788-1.8551952 2.40851647-.6638859.66737222-2.1903754 2.313391-3.590861 3.8353981-.5916703.0881529-1.3108386.1543921-1.9398618.1842744.1608666-.4213409.4128743-.946274.5523252-1.1459876.0263961-.0363569.1384549-.1763058.2131607-.2689411.1294902-.1618626.2111685-.2644587.254996-.3267135.3436469-.4910665 1.3915209-2.48770471.25649-3.28108079-.1887567-.13347445-.3949449-.20419598-.5936624-.20419598-.2719293 0-.5194547.12998817-.6798232.35759198-.0976156.14044699-.19074893.28189006-.28089399.41885078-.20220382.30828612-.39394882.60013696-.62503891.8486584l-.28786652.29234888c-.2236195.22262342-.42881156.43428998-.66338791.76349373-.6095997.8451721-.89497603 1.1659092-1.14548964 1.4492934l-.02440391.0273922c-.26645084.3008155-.54236444.6110938-1.0837328 1.3626346l-1.5195169 2.1709519c-.16136463.2096744-.35111747.358588-.5916703.5468468-.03187449.0249019-.06374899.0498039-.09761564.0757019-.20369794.1245097-1.29988171.5682624-3.3034925 1.2983876 1.52848161-1.316317 3.85133537-3.6810061 3.93002553-4.1745627.19274108-1.2221876-1.17387786-4.71692708-1.63008155-6.07209112-.10110191-.30878416-.33468219-.80931333-.53887817-1.25256801L1.955301 4.65367615c.04631763-.28687045.25399988-.34215277.60760755-.28936064 1.5284816.24204694 1.78995206 2.17344207 2.33281454 3.31096308.17182345.36008218.38797236.66139575.72414866.71418789 1.28344643.20369794 2.25462243-2.36568512 3.08485339-4.72738592.42482725-1.21172882.82873685-2.42744195 1.22567391-3.32341406C9.98817157.2096744 10.0414617.1110627 10.0967441 0H0v17.8253128c1.79393638-.6454585 3.9628961-1.4557679 4.2134097-1.6559795.30131358-.2380627.57573305-.4352861.8127996-.7490507l1.52250514-2.1739401c.5393762-.7490506.79686235-1.0344269 1.06928967-1.342713.27790574-.3122705.5712507-.6474507 1.18383863-1.4961091.21664696-.3043018.40889-.49903506.60163108-.6912781l.29683123-.3003175c.38000375-.40739588.64695265-.88601133.96420345-1.33872876.1080745-.15439208.2853763-.11305485.4362821-.00697255.6519331.45570566-.0737097 1.97572061-.4029135 2.44686551-.0692274.0981136-.3984312.4960468-.4676586.5956546-.2211293.3157567-.88650935 1.6773952-.79935253 2.1077009.89945833.0049804 2.62068103-.1269999 3.50818653-.344643.626533-.154392 2.3278341-.6992467 3.9514412-1.1494739 1.3282699-.3680508 2.8587437-.7191683 3.1585631-.5901762.3102783.1334744.4840939.5543174.2594783.8770466-.2569881.3655606-5.6019423 2.2297205-6.4431301 2.5285439.000498.1753097-.1877607.7047251 1.4139326.4940547 1.8830854-.2485215 6.4710204-.8013448 7.015875-.4193489.3386665.2370666.4317998.6220507.1982195.9223682-.2206313.280894-1.5015875.3431489-2.0359833.4263214-1.7625599.2714312-5.3130798 1.0150034-5.8644089 1.1793563.2674469.2007097.625537.3790076 2.4309282.1364626.0592667-.0079686 1.0966818-.1289921 2.3716616-.2853763.9821329-.1210235 1.8736226-.230592 2.2526303 0 .3162547.192243.5408703.6230468.2520077.8441761-.4263214.3267135-2.8866339.6439644-5.0296956 1.0458818-1.2022661.2256117-2.223744.2435411-2.6899085.3287057-.0104588.1718235-.0124509.2793999.2056901.4437527.574737.4019175 1.5085601.4034116 2.5509556.6120899.5583017.1115608 2.2342029.306792 2.6739713.6315135.3849841.2833841.1827803.6076075.1080744.7126937-.3775135.5398743-5.5840129-.3924547-6.4441262-.5538193-1.5538816-.2893607-3.2427318.3316939-4.80557805.4387723C6.39830667 21.6422835 2.76660649 22.7852829 0 23.7773766V24h24zM10.978273 4.21789205C11.2770964 3.22828861 12.2522567 1.43983067 13.0301936 0h-1.7087717s-.6892859 2.17692834-.7709643 2.52107327c-.0343647.14841562-.1449294.48259977-.2121646.83023097-.0224118.11703916-.55083113 1.69831289-.55083113 1.69831289-.13198033.40291353-.12600386.68430555.36157633.97665443.3655606-.32023906.5787212-1.07028575.8292348-1.80837951z"/></svg>

<?xml version="1.0" encoding="UTF-8"?>
<svg  viewBox="0 0 24 24" version="1.1" xmlns="http://www.w3.org/2000/svg" xmlns:xlink="http://www.w3.org/1999/xlink">
    <title>Icons/Basic icons/sign-language-content</title>
    <g  id="Icons/Basic-icons/sign-language-content" stroke="none" stroke-width="1" fill="none" fill-rule="evenodd">
        <path d="M24,24 L24,0 L14.4764988,0 C14.4242047,0.150905808 14.3240989,0.397435099 14.1522754,0.788893731 L13.3394758,2.59279089 C12.7263898,3.94745689 11.7596962,6.01780489 11.7751354,6.31114985 C11.7945589,6.71854573 12.0694764,6.3833655 12.0694764,6.3833655 C12.6023781,5.62236195 14.9282201,1.13303866 15.51491,1.22617195 C15.9208118,1.28992094 16.1553882,1.56085414 16.0234078,1.96277159 C16.0114549,2.00161863 15.8456079,2.34227728 15.5597335,2.88414368 L14.5412439,4.80906431 C13.801656,6.22100479 13.0301936,7.75894914 12.9470211,8.28338417 C12.9186329,8.4626782 12.9370603,8.81628587 13.1766171,8.8536388 C13.5755463,8.91788582 15.0841063,7.44618066 15.2912905,7.25543174 C15.5806512,6.98997697 16.7186702,5.89329515 17.1514661,5.70105211 C17.3656229,5.73491876 17.5927286,5.93413435 17.5548777,6.17418913 C17.4517836,6.8281143 16.1867646,8.08964701 15.6996825,8.5827056 C15.0357966,9.25007782 13.5093071,10.8960966 12.1088215,12.4181037 C11.5171512,12.5062566 10.7979829,12.5724958 10.1689597,12.6023781 C10.3298263,12.1810372 10.581834,11.6561041 10.7212849,11.4563905 C10.747681,11.4200336 10.8597398,11.2800847 10.9344456,11.1874494 C11.0639358,11.0255868 11.1456141,10.9229907 11.1894416,10.8607359 C11.5330885,10.3696694 12.5809625,8.37303119 11.4459316,7.57965511 C11.2571749,7.44618066 11.0509867,7.37545913 10.8522692,7.37545913 C10.5803399,7.37545913 10.3328145,7.5054473 10.172446,7.73305111 C10.0748304,7.8734981 9.98169707,8.01494117 9.89155201,8.15190189 C9.68934819,8.46018801 9.49760319,8.75203885 9.2665131,9.00056029 L8.97864658,9.29290917 C8.75502708,9.51553259 8.54983502,9.72719915 8.31525867,10.0564029 C7.70565897,10.901575 7.42028264,11.2223121 7.16976903,11.5056963 L7.14536512,11.5330885 C6.87891428,11.833904 6.60300068,12.1441823 6.06163232,12.8957231 L4.54211542,15.066675 C4.38075079,15.2763494 4.19099795,15.425263 3.95044512,15.6135218 C3.91857063,15.6384237 3.88669613,15.6633257 3.85282948,15.6892237 C3.64913154,15.8137334 2.55294777,16.2574861 0.549336986,16.9876113 C2.07781859,15.6712943 4.40067235,13.3066052 4.47936251,12.8130486 C4.67210359,11.590861 3.30548465,8.09612152 2.84928096,6.74095748 C2.74817905,6.43217332 2.51459877,5.93164415 2.31040279,5.48838947 L1.955301,4.65367615 C2.00161863,4.3668057 2.20930088,4.31152338 2.56290855,4.36431551 C4.09139015,4.60636245 4.35286061,6.53775758 4.89572309,7.67527859 C5.06754654,8.03536077 5.28369545,8.33667434 5.61987175,8.38946648 C6.90331818,8.59316442 7.87449418,6.02378136 8.70472514,3.66208056 C9.12955239,2.45035174 9.53346199,1.23463861 9.93039905,0.338666501 C9.98817157,0.209674407 10.0414617,0.111062691 10.0967441,0 L0,0 L0,17.8253128 C1.79393638,17.1798543 3.9628961,16.3695449 4.2134097,16.1693333 C4.51472328,15.9312706 4.78914275,15.7340472 5.0262093,15.4202826 L6.54871444,13.2463425 C7.08809064,12.4972919 7.34557679,12.2119156 7.61800411,11.9036295 C7.89590985,11.591359 8.18925481,11.2561788 8.80184274,10.4075204 C9.0184897,10.1032186 9.21073274,9.90848534 9.40347382,9.7162423 L9.70030505,9.4159248 C10.0803088,9.00852892 10.3472577,8.52991347 10.6645085,8.07719604 C10.772583,7.92280396 10.9498848,7.96414119 11.1007906,8.07022349 C11.7527237,8.52592915 11.0270809,10.0459441 10.6978771,10.517089 C10.6286497,10.6152026 10.2994459,11.0131358 10.2302185,11.1127436 C10.0090892,11.4285003 9.34370915,12.7901388 9.43086597,13.2204445 C10.3303243,13.2254249 12.051547,13.0934446 12.9390525,12.8758015 C13.5655855,12.7214095 15.2668866,12.1765548 16.8904937,11.7263276 C18.2187636,11.3582768 19.7492374,11.0071593 20.0490568,11.1361514 C20.3593351,11.2696258 20.5331507,11.6904688 20.3085351,12.013198 C20.051547,12.3787586 14.7065928,14.2429185 13.865405,14.5417419 C13.865903,14.7170516 13.6776443,15.246467 15.2793376,15.0357966 C17.162423,14.7872751 21.750358,14.2344518 22.2952126,14.6164477 C22.6338791,14.8535143 22.7270124,15.2384984 22.4934321,15.5388159 C22.2728008,15.8197099 20.9918446,15.8819648 20.4574488,15.9651373 C18.6948889,16.2365685 15.144369,16.9801407 14.5930399,17.1444936 C14.8604868,17.3452033 15.2185769,17.5235012 17.0239681,17.2809562 C17.0832348,17.2729876 18.1206499,17.1519641 19.3956297,16.9955799 C20.3777626,16.8745564 21.2692523,16.7649879 21.64826,16.9955799 C21.9645147,17.1878229 22.1891303,17.6186267 21.9002677,17.839756 C21.4739463,18.1664695 19.0136338,18.4837204 16.8705721,18.8856378 C15.668306,19.1112495 14.6468281,19.1291789 14.1806636,19.2143435 C14.1702048,19.386167 14.1682127,19.4937434 14.3863537,19.6580962 C14.9610907,20.0600137 15.8949138,20.0615078 16.9373093,20.2701861 C17.495611,20.3817469 19.1715122,20.5769781 19.6112806,20.9016996 C19.9962647,21.1850837 19.7940609,21.5093071 19.719355,21.6143933 C19.3418415,22.1542676 14.1353421,21.2219386 13.2752288,21.060574 C11.7213472,20.7712133 10.032497,21.3922679 8.46965075,21.4993463 C6.39830667,21.6422835 2.76660649,22.7852829 0,23.7773766 L0,24 L24,24 Z M10.978273,4.21789205 C11.2770964,3.22828861 12.2522567,1.43983067 13.0301936,0 L11.3214219,0 C11.3214219,0 10.632136,2.17692834 10.5504576,2.52107327 C10.5160929,2.66948889 10.4055282,3.00367304 10.338293,3.35130424 C10.3158812,3.4683434 9.78746187,5.04961713 9.78746187,5.04961713 C9.65548154,5.45253066 9.66145801,5.73392268 10.1490382,6.02627156 C10.5145988,5.7060325 10.7277594,4.95598581 10.978273,4.21789205 L10.978273,4.21789205 Z"  id="Fill-1" fill="#1A99C7"></path>
    </g>
</svg>
